icons/sd-card-mini-fill.svg

<svg xmlns="http://www.w3.org/2000/svg" width="24" height="24" fill="none"><g clip-path="url(#a)"><g><path fill="#121212" d="M7 2H19C19.2652 2 19.5196 2.10536 19.7071 2.29289C19.8946 2.48043 20 2.73478 20 3V21C20 21.2652 19.8946 21.5196 19.7071 21.7071C19.5196 21.8946 19.2652 22 19 22H5C4.73478 22 4.48043 21.8946 4.29289 21.7071C4.10536 21.5196 4 21.2652 4 21V12.42C4.00006 12.1553 4.10506 11.9014 4.292 11.714L5.854 10.146C5.94747 10.0523 5.99997 9.92535 6 9.793V3C6 2.73478 6.10536 2.48043 6.29289 2.29289C6.48043 2.10536 6.73478 2 7 2ZM15 4V8H17V4H15ZM12 4V8H14V4H12ZM9 4V8H11V4H9Z"/></g></g><defs><clipPath id="a"><rect width="24" height="24" fill="white"/></clipPath></defs></svg>

<svg width="24" height="24" fill="none" xmlns="http://www.w3.org/2000/svg"><g clip-path="url(#a)"><path d="M7 2h12a1 1 0 0 1 1 1v18a1 1 0 0 1-1 1H5a1 1 0 0 1-1-1v-8.58a1 1 0 0 1 .292-.706l1.562-1.568A.5.5 0 0 0 6 9.793V3a1 1 0 0 1 1-1Zm8 2v4h2V4h-2Zm-3 0v4h2V4h-2ZM9 4v4h2V4H9Z" /></g><defs><clipPath id="a"><path fill="#fff" d="M0 0h24v24H0z"/></clipPath></defs></svg>
